X:2545
T:Wm. Pitt
C:anon.
O:England
S:Lake District m/s
R:Reel
Z:Chris Partington.
F:http://abc.musicaviva.com/tunes/england/wm-pitt.abc
%Posted at abcusers Jan 2nd 2001 by Johnny Adams.
M:4/4
L:1/8
Q:1/4=200
K:D
d2dfa2af|gefd cecA|d2dfa2af|bgecd2D2:|
|:Adcd fdcd|Bgfg ea^ga|Adcd fdcd|Bgecd2D2:|
W:
W:
W:  From Musica Viva - http://www.musicaviva.com
W:  the Internet center for free sheet music downloads.

